X:1
T:Title
%%score { ( 1 4 ) | ( 2 3 ) }
L:1/8
M:9/8
K:Ab
V:1 treble nm="Grand Piano"
V:4 treble 
V:2 bass 
V:3 bass 
V:1
 z3 z3[Q:1/4=100] [CE][_C=D][=CE] | [Ec]3 [CA]3 GAB | [CE]3 [CA]3 [Ec]_c=c | e3 c3 AB[=DAc] | %4
[M:3/4] [EGB]6 |[M:3/8] E-[EF]E |[M:9/8] A3 c3 edc | [FB]3 [DF]3 [FA]GF | E3 A3 GA[DEB] | %9
[M:3/4] [CEA]6 |[M:3/8] [G,DE][G,DE][G,DE] |[M:9/8] [Gd]3 [GB]3 EEE | c3 A3 ccc | c3 G3 AGF | %14
 [Ac]3 B3 [EGB][Ge][Ge] | e3 c3 Ae[_Ge] | [Fe]3 [Fd]3 [FA][FA][FA] | c3 A3 GAB |[M:3/4] [CEA]6 |] %19
V:2
 z3 z3 [A,,A,]2 [A,,A,] | z3 z3 .B,3 | z3 z3 .A,3[K:treble] | [A,CE]3 [A,EA]3 FG[K:bass]B,, | %4
[M:3/4] E,6 |[M:3/8] z A,[E,G,D] |[M:9/8] [A,C]3 [A,E]3 E-[G,B,E][A,CE] | %7
 [D,D]3 [D,A,]3 z E[D,A,D] | [E,A,C]3 [E,CE]3 B,CE, |[M:3/4] A,,6 |[M:3/8] E,E,E, | %11
[M:9/8] [E,B,]3 [E,D]3 [E,G,D][E,G,D][E,G,D] | [A,E]3 [A,CE]3 CCC | C3[K:bass] G,3 A,G,F, | %14
 z3 G3 E,[E,B,][E,D] | [A,CA]3 [A,EA]3 [A,C_G][A,CG][K:bass][C,A,] | %16
 [D,A,]3 [D,A,]3 [=D,B,][D,B,][D,B,] | [E,A,E]3 [E,CE]3 [E,B,E][E,CE][E,DE] |[M:3/4] A,,6 |] %19
V:3
 x9 | [A,,A,]3 [A,,A,]3 [E,E]-[E,A,E][E,G,D] | [A,,A,]3 [A,,E,]3 z[K:treble] =D[A,E] | %3
 z3 z3 .[B,=D]3[K:bass] |[M:3/4] x6 |[M:3/8] E,2 z |[M:9/8] z3 z3 .[A,C]3 | z3 z3 .[D,A,]3 | %8
 z3 z3 .[E,E]3 |[M:3/4] x6 |[M:3/8] x3 |[M:9/8] x9 | x9 | x3[K:bass] x6 | E,6 z3 | x8[K:bass] x | %16
 x9 | x9 |[M:3/4] x6 |] %19
V:4
 x9 | x9 | x9 | x9 |[M:3/4] x6 |[M:3/8] G, z z |[M:9/8] x9 | x9 | x9 |[M:3/4] x6 |[M:3/8] x3 | %11
[M:9/8] x9 | x9 | x9 | E6 z3 | x9 | x9 | x9 |[M:3/4] x6 |] %19

